X:1
T:Symphony No. 5 in C Minor
T:Fourth Movement Finale
T:Ludwig van Beethoven
T:Adp. from arrangements by Franz Liszt and Ernst Pauer
%%score { ( 1 4 6 ) | ( 2 3 5 ) }
L:1/8
Q:1/4=154
M:4/4
K:C
V:1 treble nm="Piano"
V:4 treble 
V:6 treble 
V:2 bass 
V:3 bass 
V:5 bass 
V:1
"^Allegro" [cegc']4 [egc'e']4 | [gc'e'g']6 .[fd'f'] z | [egc'e'] z [dgbd'] z [cegc'] z [dgbd'] z | %3
 [cec']6 [cec']>[cec'] | [dgbd']6 [dgbd']>[dgbd'] | [egc'e']4- [egc'e'].c.[Dd].[Ee] | %6
 .[Ff].[Ee].[Ff].[Gg] .[Aa].[Gg].[Aa].[Bb] | [cgc']4- [cgc'] [Cc][Dd][Ee] | %8
 .[Ff].[Ee].[Ff].[Gg] .[Aa].[Gg].[Aa].[Bb] | [cgc']4- [cgc'] [Cc][Dd][Ee] | %10
 .[Ff].[Ee].[Ff].[Gg] .[Aa].[Gg].[Aa].[Bb] | .[cc'].[Bb].[cc'].[dd'] [ee']2 [eg]z/[ge']/ | %12
 [ge'][fd'] [df]z/[fd']/ [fd'][ec'] [ce]z/[ec']/ | [ec'][db] [Bdb]4 [ec']z/[ge']/ | %14
 [ge'][fd'] [df]z/[fd']/ [fd'][ec'] [ce]z/[ec']/ | [ec'][db] [Bdb]4 [ec']z/[ge']/ | %16
 [ge']z/[fd']/ [df]z/[fd']/ [fd']z/[ec']/ [ce]z/[ec']/ | [db]z/d/ [Gg]4 a/g/f/e/ | %18
 [db]z/d/ [Gg]4 a/g/f/e/ | dz/[ceg]/ [cea]/g/f/e/ [Bd]z/[ceg]/ [cea]/g/f/e/ | %20
 [Bd]z/[ceg]/ [cea]/g/f/e/ [Bd]z/[ceg]/ [cea]/g/f/e/ | .[Bd]gf.e .d!ff!e!f!d.c | %22
 .B!ff!e!f!d.c .B!ff!cBA | .G!ff!c!f!B.A .G[cc'][Bb].[Aa] | %24
 .G!ff![cc']!f![Bb].[Aa] .[Gg].[Ff].[Ee].[Dd] | [CEc]6!ff! [EG]2 | [Ge]6 [Fd]>[Ec] | %27
 (6:4:6[DFGB] z!mp! [DFG][DFG][DFG][DFG] (6:4:6[DFG][DFG][DFG][DFG][DFG][DFG] | %28
 (6:4:6[DFG][DFG][DFG][DFG][DFG][DFG] (6:4:6[DFG][DFG][DFG][DFG][DFG][DFG] | [FGd]6!ff! G2 | %30
!ff! [df]6 [ce]>[Bd] | d2!ff! e2 x4 | x4 x4 | [EGce]6 [Cc]2 | [Ee]2 [Cc]2 [Gg]2 [Ff]>[Ee] | %35
 [Fcf]6 [Cc]2 | [FAcf]2 [Cc]2 [Aa]2 [Gg]>[Ff] |!mf! g^fgg g4- | g^fgg g4- | g^fgg g4- | g^fgg g4- | %41
 g^fgg gfgg | g^fgg gfgg |!ff! g4- g gf.e | .ded.c B [Gg][A^f].[cfc'] | .[Bgb] g^f.c' .b G^F.c | %46
 .B z z2 z2 (3[Bd][ce][df] | .[Geg]2 (3[ce][df][eg] .[fa]2 (3[fa][gb][ac'] | %48
 .[eg]2 (3[EG][EG][EG] [EG]2!p! (3gfe | d2 (3fed c2 (3edc | [GB]2 (3Bcd G2!f! (3[Bd][ce][df] | %51
 [eg]2 (3[ce][df][eg] [fa]2 (3[fa][g=b][ac'] | [eg]2 (3GAB .[Cc]2!p! (3gfe | d2 (3fed c2 (3edc | %54
 B2 (3GAB c2!p! (3agf | e2 (3gfe d2 (3fed | ^c2 (3ABc d2!pp! (3=c'_ba | g2 (3_bag f2 (3agf | %58
 [EGe]"^cresc." z/ x/ x2 x4 | x4 x4 |!ff! [Afa]4- [Afa]/ A,/_B,/C/ D/E/F/G/ | %61
 A/C/D/E/ F/G/A/_B/ c/A/B/c/ d/e/f/g/ | a/g/a/=b/ c/c'/c/c'/ c/c'/c/c'/ c/c'/c/c'/ | %63
 [cac']b/a/ g/f/e/d/ c'/b/a/g/ f/e/d/c/ |!fff! .[FAf]2 z2 z4 | .[DGBd]2 z2 z4 | [Cc]6!mf! B2 | %67
 [_E^FA]2 [=DG]2 z!p! g/a/ b/!mp!c'/d'/b/ |!f!!>(! c'2!>)! z2 z4 | %69
 [_E^FA]2 [=DG]2 z!p! g/a/ b/!mp!c'/d'/e'/ |!f!!>(! f'2!>)! z2 z4 | %71
 [Ad]2 [G^c]2 z!p! ^c'/d'/ e'/f'/!mp!g'/e'/ | a'2 z2 z/!p! a/b/^c'/ d'/e'/!mp!f'/d'/ | %73
 g'2 z2 z!mp!!<(! d/e/ f/!mf!g/a/!<)!b/ |!ff! [cc']6!ff! [Bb]2 | [Aa]2!ff! [Gg]2!ff! [Gg]2 [Gg]2 | %76
!ff! [cc']6!ff! [Bb]2 |!ff! [Aa]2!ff! [Gg]2!ff! [Gg]2!ff! [Gg]2 |!ff!!8va(! [ff']6 [ee']2!8va)! | %79
!ff! [dd']2!ff! [^c^c']2!ff! [cc']2!ff! [cc']2 | [^c^c']2!ff! [ec'e']2 [ec'e']2!ff! [ec'e']2 | %81
 [e^c'e']2!ff! [ge'g']2!ff! [ge'g']2 [ge'g']2 | %82
!ff! .[ge'g']!mf! z/ [^c^c']/z/[_B_b]/z/[Gg]/ z/ [Bb]/z/!f!!<(![cc']/z/[ee']/z/!<)![gg']/ | %83
 .[fd'f'] z/!mf! [dd']/z/[_B_b]/z/[Ff]/ z/ [Bb]/z/!f!!<(![dd']/z/[ff']/z/!<)![dd']/ | %84
!ff! .[f=bd'f'] z/!mf! [dd']/z/[Bb]/z/[Ff]/ z/ [Bb]/z/!f!!<(![dd']/z/[ff']/z/!<)![dd']/ | %85
!ff! .[_eac'_e'] z/!mf! [cc']/z/[Aa]/z/[^F^f]/ z/ [Aa]/z/!<(![cc']/z/[ee']/z/!<)![cc']/ | %86
 z/!8va(! [_e_e']/z/!f![^f^f']/z/[aa']/z/[c'c'']/ z/ [e'_e'']/z/!ff![c'c'']/z/[e'e'']/z/[c'c'']/ | %87
!ff! [=e'c''=e'']6!8va)!!f! (3[Gg]fe | [DFd]2 (3fed [CEc]2 (3edc | [B,DB]2 (3Bcd .G2 (3agf | %90
 [EGe]2 (3gfe [DFd]2 (3fed |!ff! [CEc]2!f! (3cde .G2 c2 | [B,DB]2 (3Bcd [CEc]2 (3cde | %93
 [DGd]2 (3def z2 d2 | [CEc]2 (3cde [DFd]2 (3def | [EGe]2!f! (3efg z2 (3gfe | %96
 (3d^cd (3fed (3ede (3gfe | (3[Bf]ef (3agf (3[Bf]ef (3agf | (3[_Be]de (3gfe (3[Bf]ef (3agf | %99
 (3[_Bg]^fg (3_bag (3gfg (3bag |!8va(! (3[_bg']^f'g' (3_b'a'g' (3g'f'g' (3b'a'g' | %101
 [ac'f'a'][ac'f'a'][ac'f'a'][ac'f'a'] [ac'f'a'][ac'f'a'][ac'f'a'][ac'f'a'] | %102
 [c'f'a'c''][c'f'a'c''][c'f'a'c''][c'f'a'c''] [c'f'a'c''][c'f'a'c''][c'f'a'c''][c'f'a'c''] | %103
 [f'a'c''f''][f'a'c''f''][f'a'c''f''][f'a'c''f''] [f'a'c''f''][f'a'c''f''][f'a'c''f''][f'a'c''f''] | %104
 [c'f'a']/a/[c'f'a']/a/ [c'f'a']/a/[c'f'a']/a/ [c'f'a']/a/[c'f'a']/a/ [c'f'a']/a/[c'f'a']/a/ | %105
 .[gbd'g']2!8va)! z2 z4 | .[GBdg]2 z2 z4 | .[EGce]2 z2 z4 | .[GBdg]2 z2 z4 | .[EGce]2 z2 z4 | %110
 .[GBdg]2 z2 z4 | .[EGce]2 z2 z4 | .[GBdg]2 z2 z4 | z8 | z8 | z8 | z4 z2!p! g2 | b2 g2 d'2 c'>b | %118
 c'2 g2 e'2!mp! d'>c' | b2 [Gg]2 [dd']2 [cc']>[Bb] | [cc']2 g2 [ee']2!mf! [dd']>[cc'] | %121
 [Bb]2 [Gg]2 [dd']2!f! [cc']>[Bb] |!f! c'2!f! b2!f! a2 g2 | f2 e2 d2 ^c2 | %124
!ff! [DAd]6!8va(!!f! .[Ece]2!8va)! |!ff! [Fcf]6!8va(!!f! .[_Ec_e]2!8va)! | %126
 [DAd]6!8va(!!f! .[Ece]2!8va)! |!ff! [Fcf]6!8va(!!f! .[^Fc^f]2!8va)! | .[Gdg]2 z2!p! .[=Ec=e]2 z2 | %129
 .[Fdf]2 z2 .[DFd]2 G,2 | C2 G,2 E2 D>C | G6 E2 | c2 G2 e2 d>c | g6 g2 | %134
!p! [Bb]2 g2 [dd']2 [cc']>[Bb] | [cc']2 g2 [ee']2!mp! [dd']>[cc'] | [Bb]2 g2 [dd']2 [cc']>[Bb] | %137
 [cc']2 g2 [ee']2!mf! [dd']>[cc'] | [Bb]2 g2 [dd']2!f! [cc']>[Bb] | [cc']2 [Bb]2 [Aa]2 [Gg]2 | %140
 [Ff]2 [Ee]2 [Dd]2 [^C^c]2 | [DBd]6!8va(!!f! .[Ece]2!8va)! |!ff! [Fcf]6!8va(! .[_Ec_e]2!8va)! | %143
 [DAcd]6!8va(! .[_Ec_e]2!8va)! | [Fcf]6!8va(!!f! .[^fc'^f']2!8va)! |!p! .[gc'g']2 z2 .[gg']2 z2 | %146
 .[gg']2 z2 .[ff']2 z2 | .[ff']2 z2 .[ee']2 z2 | %148
!p![Q:1/4=184]"^più Allegro" .[dd']2 .[GB]2 .[gg']2 .[cg]2 | .[gg']2 .[cg]2 .[gg']2 .[cg]2 | %150
!mp! .[gg']2 .[cg]2 .[ff']2 .[cf]2 | .[ff']2 .[Bf]2 .[ee']2 .[ce]2 | %152
!mf! .[dd']2 .[Bd]2 .[gg']2 .[cg]2 | .[gg']2 .[cg]2 .[gg']2 .[cg]2 | %154
!f! .[gg']2 .[cg]2 .[ff']2 .[cf]2 | .[ff']2 .[Bf]2 .[ee']2 .[ce]2 | %156
 .[dd']2 .[cd]2 .[gg']2 .[Bg]2 ||[Q:1/4=240]"^Presto" C6 B,2 | A,2 G,2 .G,2 .G,2 | C6 B,2 | %160
 A,2 G,2 .G,2 .G,2 | [CE]6 [B,D]2 | [A,C]2 [G,B,]2 .[G,B,]2 .[G,B,]2 | [CE]6 [B,D]2 | %164
 [A,C]2 [G,B,]2 .[G,B,]2 .[G,B,]2 | [CEc]6 [B,DB]2 | [A,CA]2 [G,B,G]2 .[G,B,G]2 .[G,B,G]2 | %167
 [CEc]6 [B,DB]2 | [A,CA]2 [G,B,G]2 .[G,B,G]2 .[G,B,G]2 | [Ece]6 [DBd]2 | %170
 [CAc]2 [B,GB]2 .[B,GB]2 .[B,GB]2 | [Ece]6 [DBd]2 | [CAc]2 [B,GB]2 .[B,GB]2 .[B,GB]2 | %173
 .[Gceg]2 z2 .[Gcg]2 z2 | .[Gcg]2 z2 .[Fcf]2 z2 |!mp! .[Fcf]2 z2 .[Ece]2 z2 | %176
 .[FBd]2 z2 .[Gcg]2 z2 | .g2 z2 .g2 z2 | .g2 z2 .f2 z2 | .f2 z2 .e2 z2 | .d2 z2 .[Gcg]2 .[Gcg]2 | %181
 .[Gcg]2 .[gc'e'g']2 .[gc'e'g']2 .[gc'e'g']2 | .[gc'g']2 .[gc'g']2 .[fc'f']2 .[fc'f']2 | %183
 .[fbd'f']2 .[fbd'f']2 .[ec'e']2 .[ec'e']2 | .[fc'd']2 .[fc'd']2 .[fgbg']2 .[fgbg']2 | %185
!ff! [cegc']4 [egc'e']4 | [gc'e'g']6 [ff']2 | [egc'e']2 [dd']2 [cc']2 [dd']2 | [egc'e']6 [ee']2 | %189
 [egc'e']2 [dd']2 [ee']2 [ff']2 | [gc'e'g']6 [gg']2 | [gc'e'g']2 [ff']2 [gg']2 [bb']2 | %192
 [c'e'g'c'']6 [Bb]2 | [cegc']2 [Bb]2 [cc']2 [dd']2 | [egc'e']2 [dd']2 [ee']2 [ff']2 | %195
 [gc'e'g']2 [gc'e'g']2 [gc'e'g']2 [gc'e'g']2 | [gc'e'g']2 [gc'e'g']2 [gc'e'g']2 [gc'e'g']2 | %197
 [egc'e']2 [egc'e']2 [egc'e']2 [egc'e']2 | [egc'e']2 [egc'e']2 [egc'e']2 [egc'e']2 | %199
 .[cegc']2 z2 z4 | .[dgbd']2 z2 z4 | .[egc'e']2 z2 z4 | .[gbd'g']2 z2 z4 | .[egc'e']2 z2 z4 | %204
 .[dgbd']2 z2 z4 | .[egc'e']2 z2 z4 | .[gbd'g']2 z2 z4 | .[egc'e']2 z2 z4 | .[gbd'g']2 z2 z4 | %209
 .[egc'e']2 z2 z4 | .[gbd'g']2 z2 z4 |!fff! z!8va(! [c'c'']z[c'c'']z[c'c'']z[c'c''] | %212
 z [c'c'']z[c'c'']z[gg']z[ee']!8va)! | z [cc']z[cc']z[cc']z[cc'] | z [cc']z[cc']z[Gg]z[Ee] | %215
 [Cc]2 z2 z2 [CEc]2 | [CEc]2 [CEc]2 [CEc]2 [CEc]2 | [CEc]2 z2 z2 [CEc]2 | %218
 [CEc]2 [CEc]2 [CEc]2 [CEc]2 | [CEc]2 z2 [CEc]2 [CEc]2 | [CEc]2 z2 [Ece]2 [Ece]2 | %221
 [Ece]2 z2 [Geg]2 [Geg]2 | [Geg]2 z2 [cec']2 [cec']2 | [cec']2 [cec']2 [cec']2 [cec']2 | %224
 [cec']2 [cec']2 [cec']2 [cec']2 | [ege']2 [ege']2 [ege']2 [ege']2 | %226
 [ege']2 [ege']2 [ege']2 [ege']2 | [ege']2 z2 z4 | z8 | [cegc']2 z2 z4 | z8 | [CEGc]2 z2 z4 | z8 | %233
 [cegc']2 z2 z4 | [cegc']2 z2 z4 | [cegc']2 z2 z4 | z8 |!8va(! [c'e'g'c'']2 z2!8va)! z4 | z8 | %239
[K:bass][Q:1/4=120] !fermata![C,C]8 |] %240
V:2
!ff!!ped! !arpeggio![C,,E,,G,,C,]4 !arpeggio![C,,G,,C,E,]4 | %1
 !arpeggio![C,,G,,C,G,]6!ped-up! [G,,D,F,G,] z | %2
 [C,E,G,] z [G,,D,F,G,] z [C,E,G,] z [G,,D,F,G,] z | %3
!ped! (6:4:6C,,E,,G,,C,E,G, [C,E,G,C]2 [C,E,G,]>[C,E,G,]!ped-up! | %4
!ped! (6:4:6G,,,B,,,D,,G,,B,,D, [G,,B,,D,G,]2 [G,,B,,D,G,]>[G,,B,,D,G,]!ped-up! | %5
!ped! (6:4:6C,,E,,G,,C,E,G, [C,E,G,C]!ped-up! [C,C][B,,B,][_B,,_B,] | %6
!ped! !arpeggio![A,,C,F,A,]4!ped-up!!ped! [F,,A,,C,F,]4!ped-up! | %7
 .[E,,E,].[F,,F,].[E,,E,].[D,,D,] [C,,C,]4 | %8
!ped! !arpeggio![A,,C,F,A,]4!ped-up!!ped! [F,,A,,C,F,]4!ped-up! | %9
 .[E,,E,].[F,,F,].[E,,E,].[D,,D,] [C,,C,]4 | %10
!ped! !arpeggio![A,,C,F,A,]4!ped-up!!ped! [F,,A,,C,F,]4!ped-up! | %11
 [E,,E,][F,,F,][E,,E,][D,,D,] [C,,C,]2 [C,E,G,]z/[C,E,G,]/ | %12
 [F,G,]2 [F,G,]>[F,G,] [E,G,]2 [E,G,]>[E,G,] | %13
!ped! [G,,G,]2 [G,,B,,D,G,]4!ped-up! [C,E,G,]>[C,E,G,] | %14
 [F,G,]2 [F,G,]>[F,G,] [E,G,]2 [E,G,]>[E,G,] | %15
!ped! [G,,G,]2 [G,,B,,D,G,]4!ped-up! [C,E,G,]>[C,E,G,] | %16
 [B,,G,]>[B,,G,] [G,,G,]>[G,,G,] [C,G,]>[C,G,] [E,G,]>[E,G,] | %17
!ped! [G,,G,] z (3[G,B,D][G,B,D][G,B,D]!ped-up! (3[G,B,D][G,B,D][G,B,D] [G,B,D] z | %18
!ped! [G,,G,] z (3[G,B,D][G,B,D][G,B,D]!ped-up! (3[G,B,D][G,B,D][G,B,D] [G,B,D] z | %19
 [G,,G,] z/!ped! [G,CE]/ [G,CE]2!ped-up! [G,B,D] z/!ped! [G,,C,G,]/ [G,,C,G,]2!ped-up! | %20
 [G,,G,] z/!ped! [G,CE]/ [G,CE]2!ped-up! [G,B,D] z/!ped! [G,,C,G,]/ [G,,C,G,]2!ped-up! | %21
 [G,,B,,D,G,]2!f! z2 z ED.C | .B,ED.C .B,C!f!B,A, | .G,CB,.A, .G,!ff!C!f!B,.A, | %24
 .G,[C,C][B,,B,].[A,,A,] .[G,,G,].[F,,F,].[E,,E,].[D,,D,] | %25
!ff!!ped! (6:4:6[C,,C,]!mp! [C,E,G,][C,E,G,][C,E,G,][C,E,G,][C,E,G,] (6:4:6[C,E,G,][C,E,G,][C,E,G,][C,E,G,][C,E,G,][C,E,G,]!ped-up! | %26
!ped! (6:4:6[E,G,C][E,G,C][E,G,C][E,G,C][E,G,C][E,G,C] (6:4:6[E,G,C][E,G,C][E,G,C]!ped-up![E,G,C][E,G,C][E,G,C] | %27
!ff!!ped! [G,,,G,,]4- [G,,,G,,].[G,,,G,,].B,,,.D,,!ped-up! | .F,,.G,,.B,,.D, .F,.G,.F,.D, | %29
!ff!!ped! .B,,!ff!.D,.B,,.G,, .F,,.D,,.B,,,.D,,!ped-up! | %30
!ped! (6:4:6[G,,,G,,]!mp![F,G,B,][F,G,B,][F,G,B,][F,G,B,][F,G,B,] (6:4:6[F,G,B,][F,G,B,][F,G,B,][F,G,B,][F,G,B,][F,G,B,]!ped-up! | %31
!ff! [C,,C,]4- [C,,C,]!ped!.C,,.E,,.[G,,,G,,] | .[C,,C,].E,.G,.C .E.C.G,.E,!ped-up! | %33
!ff! [_B,,,_B,,][A,,,A,,].[B,,,B,,].[B,,,B,,] [B,,,B,,]4- | %34
 [B,,,B,,][A,,,A,,].[_B,,,_B,,].[B,,,B,,] E,2 F,>G, | %35
 F,[^G,,,^G,,].[A,,,A,,].[A,,,A,,] [A,,,A,,]4- | %36
 [A,,,A,,][^G,,,^G,,].[A,,,A,,].[A,,,A,,] F,2 =G,>A, |!ff!!ped! [B,,,G,,B,,]6 [G,,,G,,]2!ped-up! | %38
!ped! [B,,,B,,]2 [G,,,G,,]2 [D,,D,]2!ped-up! [C,,C,]>[B,,,B,,] | %39
!ped! [C,,G,,C,]6 [G,,,G,,]2!ped-up! |!ped! [C,,C,]2 [G,,,G,,]2 [E,,E,]2!ped-up! [D,,D,]>[C,,C,] | %41
!ped! [B,,,G,,B,,]2 [G,,,G,,]2 [D,,G,,D,]3!ped-up! [C,,C,]/[B,,,B,,]/ | %42
!ped! [C,,G,,C,]2 [G,,,G,,]2 [E,,G,,E,]3!ped-up! [D,,D,]/[C,,C,]/ | %43
 .[G,,G,] [G,G][F,F].[E,E] .[D,D] [E,E][D,D].[C,C] | %44
 .[B,,B,][C,C][B,,B,].[A,,A,] .[G,,G,] [G,,G,][A,,A,].[D,,D,] | %45
 .[G,,G,][K:treble] G^F.c .B[K:bass]!f! G,^F,.C | %46
 .B, [G,,G,][F,,F,].[D,D] .[F,,F,] [E,,E,][D,,D,].[B,,B,] | %47
!ped! (3.[C,,C,] [E,G,C][E,G,C] [E,G,C]2!ped-up!!ped! (3.[C,,C,] [A,CF][A,CF] [A,CF]2!ped-up! | %48
!ped! [C,G,C]2 (3G,,A,,B,,!ped-up! .[C,,C,]2 (3EFG | F2 (3DEF E2 (3CDE | %50
 [G,D]2!mp!"^cresc." (3B,,C,!mf!D, G,,2 (3F,E,D, | %51
!ped! (3z CC (3CB,_B,!ped-up!!ped! (3z A,A, (3A,G,F,!ped-up! | %52
!ped! (3E,F,G, (3G,,A,,B,,!ped-up! .[C,,C,]2 (3EFG | F2 (3DEF E2 (3CDE | %54
 [DF]2!f! (3G,,A,,B,, [C,,C,]2[K:treble] (3FGA | G2 (3EFG F2 (3DEF | %56
 G2[K:bass]!f! (3A,,B,,^C, [D,,D,]2 (3=C,E,F, | [E,G,]2 (3C,F,G, A,2 (3C,G,A, | %58
!pp!!ped!!<(! C,, [C,_B,C]/[I:staff -1][Geg]/[I:staff +1][C,B,C]/[I:staff -1][Geg]/[I:staff +1][C,B,C]/[I:staff -1][Geg]/[I:staff +1][C,B,C]/[I:staff -1][Geg]/[I:staff +1][C,B,C]/[I:staff -1][Geg]/[I:staff +1][C,B,C]/[I:staff -1][Geg]/[I:staff +1][C,B,C]/[I:staff -1][Geg]/ | %59
[I:staff +1] [C,_B,C]/[I:staff -1][^Ge^g]/[I:staff +1][C,B,C]/[I:staff -1][Geg]/[I:staff +1][C,B,C]/[I:staff -1][Geg]/[I:staff +1][C,B,C]/[I:staff -1][Geg]/[I:staff +1][C,B,C]/[I:staff -1][Geg]/[I:staff +1][C,B,C]/[I:staff -1][Geg]/[I:staff +1][C,B,C]/[I:staff -1][Geg]/[I:staff +1][C,B,C]/[I:staff -1][Geg]/!ped-up!!<)! | %60
!ped![I:staff +1] [F,,C,]/!f!F,/[F,,C,]/F,/ [F,,C,]/F,/[F,,C,]/F,/ [F,,C,]/F,/[F,,C,]/F,/ [F,,C,]/F,/[F,,C,]/F,/!ped-up! | %61
!ped! [F,,C,]/F,/[F,,C,]/F,/ [F,,C,]/F,/[F,,C,]/F,/ [F,,C,]/F,/[F,,C,]/F,/ [F,,C,]/F,/[F,,C,]/F,/ | %62
 F,,.[F,,F,]!ped-up!.[^F,,^F,].[F,,F,] .[G,,G,].[G,,G,].[^G,,^G,].[G,,G,] | %63
 .[A,,A,].[A,,A,] .[B,,B,].[B,,B,] .[C,C] .[C,E,C].[D,F,C].[E,G,C] | .[F,A,D]2 z2 z4 | %65
 .[G,,D,G,B,]2 z2 z4 |!f!!>(! G,4!>)!!mp! ^G,4 | [C,A,]2 [B,,=G,B,]2!mf! .[B,DG]2 .[B,DG]2 | %68
 C4!mp! ^G,4 | [C,A,]2 [B,,=G,B,]2!mf! .[B,DG]2 .[B,DG]2 | F4!mp! ^C4 | %71
 [F,D]2 [E,G,_B,^C]2!mf! [E,G,B,C]2 [E,G,B,C]2 |!f! [F,A,D]4 [D,F,D]7/2 [F,DF]/ | %73
 [CE]4 [DF]7/2 [DF]/ |!ped! [E,E]6 [D,D]2!ped-up! | %75
!ff! [C,C]2!ped! [B,,B,]2 [B,,B,]2!ff! [B,,B,]2!ped-up! | [E,E]6 [D,D]2 | %77
 [C,C]2!ped! [B,,B,]2 [B,,B,]2 [B,,B,]2 | [B,,B,]6!ped-up!!ff! [C,C]2 | %79
!ped! [F,,F,]2 [E,,E,]2 [E,,E,]2 [E,,E,]2 |!ff! [E,,E,]2 [E,,G,,E,]2!ff! [E,,G,,E,]2 [E,,G,,E,]2 | %81
!ff! [E,,G,,E,]2 [E,,G,,E,]2 [E,,G,,E,]2!ff! [E,,G,,E,]2!ped-up! | %82
!ped! .[F,,_B,,^C,F,]!f!!<(! [B,,_B,]/z/[C,^C]/z/!<)![E,E]/ z/ [C,C]/z/[B,,B,]/z/[F,,F,]/z/[B,,B,]/ z/!ped-up! | %83
!ff!!ped! .[F,,_B,,D,F,]!f!!<(! [B,,_B,]/z/[D,D]/z/!<)![F,F]/ z/ [D,D]/z/[B,,B,]/z/[F,,F,]/z/[B,,B,]/ z/!ped-up! | %84
!ped! .[F,,=B,,D,F,]!f!!<(! [B,,B,]/z/[D,D]/z/!<)![F,F]/ z/ [D,D]/z/[B,,B,]/z/[F,,F,]/z/[B,,B,]/ z/!ped-up! | %85
!ped! .[^F,,C,_E,^F,]!mf!!<(! [A,,A,]/z/[C,C]/z/!<)![E,_E]/ z/ [C,C]/z/!f![A,,A,]/z/[F,,F,]/z/[A,,A,]/ z/ | %86
!<(! [^F,,^F,]/z/[_E,,_E,]/z/!ff![C,,C,]/z/[A,,,A,,]/ z/ [^F,,,F,,]/z/[A,,,A,,]/z/[F,,,F,,]/z/[A,,,A,,]/!<)! z/!ped-up! | %87
!ped! [G,,,G,,]6!ped-up! [G,,C,G,]2 | G,2 (3DEF G,2 (3CDE |!ff! z2!f! (3B,CD .G,2 z2 | %90
 G,2 (3EFG G,2 (3DEF | z2 (3CDE .G,2 z2 | D,2 (3F,E,D, C,2 (3E,D,C, | %93
!ff! B,,2!f! (3B,,C,D, .[G,,,G,,]2 (3A,G,F, | E,2 (3G,F,E, D,2 (3F,E,D, | %95
!ff! C,2 (3C,D,E, [G,,,G,,]2 [C,E,]2 | %96
!ped! (3B,,D,G, (3B,,D,G,!ped-up!!ped! (3C,E,G, (3E,G,C!ped-up! | %97
!ped! (6:4:6D,G,B,FB,G, (6:4:6FB,G,!ped-up!D,G,B, | %98
!ped! (6:4:6^C,G,_B, EB,G,!ped-up!!ped! (6:4:6D,G,B, FB,G,!ped-up! | %99
!ff!!ped! (3z _B,_D (3GDB, (3GDB, (3GDB,!ped-up! |!fff!!ped! (3z G,C (3ECG, (3ECG, (3ECG,!ped-up! | %101
!ped! [F,,F,]2[K:treble] [A,FA][A,FA][A,FA][A,FA] [A,FA] z | %102
[K:bass] [F,,F,]2[K:treble] [CFAc][CFAc][CFAc][CFAc] [CFAc] z | %103
[K:bass] [F,,F,]2[K:treble] [FAcf][FAcf][FAcf][FAcf] [FAcf] z | %104
[K:bass]!8vb(! [F,,,F,,][G,,,G,,][A,,,A,,][B,,,B,,] [C,,C,][D,,D,][E,,E,][F,,F,]!ped-up!!8vb)! | %105
 .[G,G]2 z2 z4 | .[G,,B,,D,G,]2 z2 z4 | .[C,E,G,C]2 z2 z4 | .[G,,B,,D,G,]2 z2 z4 | %109
 .[C,E,G,C]2 z2 z4 | .[G,,B,,D,G,]2 z2 z4 | .[C,,E,,G,,C,]2 z2 z4 | %112
 .[G,,,B,,,D,,G,,]2 z2 z2!ff! G,,2 | C,2 G,,2 E,2 D,>C, | G,6!p! E,2 | C2 G,2 E2 D>C | G8 | %117
!pp!!ped! FGFG FGFG!ped-up! |"^cresc. poco a poco"!ped! EGEG EGEG!ped-up! | %119
!p!!ped! F,G,F,G, F,G,F,G,!ped-up! |!ped! E,G,E,G, E,G,E,G,!ped-up! | %121
!mf!!ped! [F,,F,]G,,[F,,F,]G,, [F,,F,]G,,[F,,F,]G,,!ped-up! | %122
!ped! [E,,E,]2!ped-up! [D,F,D]2 [C,E,C]2!f! [B,,D,B,]2 | %123
!f! [A,,C,A,]2!f! [G,,B,,G,]2!f! [F,,A,,F,]2!f! [E,,G,,E,]2 | %124
 [F,,A,,D,F,]6[K:treble]!ped!!ped-up![K:bass] .[G,,C,E,G,]2 | %125
 [A,,C,F,A,]6[K:treble]!ped!!ped-up![K:bass] .[G,,C,G,]2 | %126
!ff! [^F,,C,^F,]6[K:treble]!ped!!ped-up![K:bass] .[G,,C,G,]2 | %127
 [_A,,C,_A,]6[K:treble]!ped!!ped-up![K:bass] .[=A,,_E,=A,]2 | .[B,,D,B,]2 z2 .[C,=E,C]2 z2 | %129
 .[F,,A,,F,]2 z2 .[G,,B,,D,G,]2!f! [G,,,G,,]2 | [C,,C,]2 [G,,,G,,]2 [E,,E,]2 [D,,D,]>[C,,C,] | %131
 [G,,G,]6!p! E,2 | C2 G,2 E2 D>C | G8 | %134
!pp!!ped! [F,D][G,B,][F,D][G,B,] [F,D][G,B,][F,D][G,B,]!ped-up! | %135
!ped! [E,E][G,C][E,E][G,C]"^cresc poco a poco" [E,E][G,C][E,E][G,C]!ped-up! | %136
!p!!ped! [F,,D,][G,,B,,][F,,D,][G,,B,,] [F,,D,][G,,B,,][F,,D,][G,,B,,]!ped-up! | %137
!ped! [E,,E,][G,,C,][E,,E,][G,,C,] [E,,E,][G,,C,][E,,E,][G,,C,]!ped-up! | %138
!mp!!ped! [F,,D,][G,,B,,][F,,D,][G,,B,,] [F,,D,][G,,B,,]!mf![F,,D,][G,,B,,]!ped-up! | %139
!f! [E,E]2 [D,D]2 [C,C]2 [B,,B,]2 | [A,,A,]2 [G,,G,]2 [F,,F,]2 [E,,E,]2 | %141
!ff! [F,,A,,D,F,]6[K:treble]!ped!!ped-up![K:bass] .[G,,C,E,G,]2 | %142
 [A,,C,F,A,]6[K:treble]!ped!!ped-up![K:bass]!f! .[G,,C,_E,G,]2 | %143
!ff! [^F,,A,,D,^F,]6[K:treble]!ped!!ped-up![K:bass]!f! .[G,,C,_E,G,]2 | %144
!ff! [_A,,C,F,_A,]6[K:treble]!ped!!ped-up![K:bass] .[=A,,_E,=A,]2 | %145
!ped! z [EG][EG][EG] z [EG][EG][EG]!ped-up! | z"^cresc. poco a poco" [CG][CG][CG] z [CF][CF][CF] | %147
 z [DF][DF][DF] z [CE][CE][CE] | .[G,,G,]2 .[B,D]2 .[_B,,_B,]2 .[EG]2 | %149
 .[_B,,_B,]2 .[EG]2 .[B,,B,]2 .[EG]2 | .[_A,,_A,]2 .[CG]2 .[A,,A,]2 .[CF]2 | %151
 .[G,,G,]2 .[DF]2 .[G,,G,]2 .[CE]2 | .[G,,G,]2 .[B,D]2 .[_B,,_B,]2 .[EG]2 | %153
 .[_B,,_B,]2 .[EG]2 .[B,,B,]2 .[EG]2 | .[_A,,_A,]2 .[CG]2 .[A,,A,]2 .[CF]2 | %155
 .[G,,G,]2 .[DF]2 .[G,,G,]2 .[CE]2 | .[G,,G,]2 .[DF]2 .[G,,G,]2 .[DG]2 || %157
!f! [C,,C,]2!p! [C,E,]2 [C,E,]2 [C,E,]2 | [D,F,]2 [D,F,]2 [D,F,]2 [D,F,]2 | %159
!f! [C,,C,]2!p! [C,E,]2 [C,E,]2 [C,E,]2 | [D,F,]2 [D,F,]2 [D,F,]2 [D,F,]2 | %161
!f! E,2!p! [C,E,]2 [C,E,]2 [C,E,]2 | [D,F,]2 [D,F,]2 [D,F,]2 [D,F,]2 | %163
!f! E,2!p! [C,E,]2 [C,E,]2 [C,E,]2 | [D,F,]2 [D,F,]2 [D,F,]2 [D,F,]2 | %165
!f! [C,,C,]2!p! [C,E,]2 [C,E,]2 [C,E,]2 | [G,,D,F,]2 [G,,,G,,]2 [G,,,G,,]2 [G,,,G,,]2 | %167
!f! [C,,C,]2!p! [C,E,]2 [C,E,]2 [C,E,]2 | [G,,D,F,]2 [G,,,G,,]2 [G,,,G,,]2 [G,,,G,,]2 | %169
!f! [C,,C,]2!p! [C,E,]2 [C,E,]2 [C,E,]2 | [G,,D,F,]2 [G,,,G,,]2 [G,,,G,,]2 [G,,,G,,]2 | %171
!f! [C,,C,]2!p! [C,E,]2 [C,E,]2 [C,E,]2 | [G,,D,F,]2 [G,,,G,,]2 [G,,,G,,]2 [G,,,G,,]2 | %173
"^cresc. simile" .[_B,,,_B,,]2 z2 .[B,,E,_B,]2 z2 | .[_A,,C,_A,]2 z2 .[A,,C,A,]2 z2 | %175
 .[G,,D,G,]2 z2 .[G,,C,G,]2 z2 | .[G,,G,]2 z2 .[_B,,E,_B,]2 z2 | %177
 .[E,_B,]2 .[E,B,]2 .[E,B,]2 .[E,B,]2 | .[C,_A,]2 .[C,A,]2 .[C,A,]2 .[C,A,]2 | %179
!mf! .[D,G,]2 .[D,G,]2 .[C,G,]2 .[C,G,]2 | .[F,G,]2 .[F,G,]2 .[_B,,E,_B,]2 .[B,,E,B,]2 | %181
!f! .[_B,,E,_B,]2 .[_B,,,B,,]2 .[B,,,B,,]2 .[B,,,B,,]2 | %182
 .[_A,,,_A,,]2 .[A,,,A,,]2 .[A,,,A,,]2 .[A,,,A,,]2 | %183
 .[G,,,G,,]2 .[G,,,G,,]2 .[G,,,G,,]2 .[G,,,G,,]2 | %184
 .[G,,,G,,]2 .[G,,,G,,]2 .[G,,,G,,]2 .[G,,,G,,]2 |!ped! [C,E,G,C]4 [E,G,CE]4 | %186
 [G,CEG]6!ped-up! [F,,F,]2 |!ped! [G,,C,G,]6!ped-up! [F,,F,]2 | %188
!ped! [E,,G,,E,]2 [D,,D,]2 [C,,C,]2!ped-up! [D,,D,]2 |!ped! [E,,C,E,]6!ped-up! [E,,E,]2 | %190
!ped! [E,,C,E,]2 [D,,D,]2 [E,,E,]2!ped-up! [F,,F,]2 |!ped! [G,,C,G,]6!ped-up! [G,,G,]2 | %192
!ped! [G,,C,G,]2 [F,,F,]2 [G,,G,]2!ped-up! [B,,B,]2 | %193
!ped! [C,E,G,C]2 [B,,B,]2 [C,C]2!ped-up! [D,D]2 |!ped! [E,G,CE]2 [D,D]2 [E,E]2!ped-up! [F,F]2 | %195
!ped! [G,CEG]2 [G,CEG]2 [G,CEG]2 [G,CEG]2 | [G,CEG]2 [G,CEG]2 [G,CEG]2 [G,CEG]2 | %197
 [E,G,CE]2 [E,G,CE]2 [E,G,CE]2 [E,G,CE]2 | [E,G,CE]2 [E,G,CE]2 [E,G,CE]2 [E,G,CE]2!ped-up! | %199
 .[C,E,G,C]2 z2 z4 | .[G,,B,,D,G,]2 z2 z4 | .[C,E,G,C]2 z2 z4 | .[G,,B,,D,G,]2 z2 z4 | %203
 .[C,E,G,C]2 z2 z4 | .[G,,B,,D,G,]2 z2 z4 | .[C,,E,,G,,C,]2 z2 z4 | .[G,,,B,,,D,,G,,]2 z2 z4 | %207
 .[C,,E,,G,,C,]2 z2 z4 | .[G,,,B,,,D,,G,,]2 z2 z4 | .[C,,E,,G,,C,]2 z2 z4 | %210
 .[G,,,B,,,D,,G,,]2 z2 z4 |[K:treble]!ped! [Cc]z[Cc]z[Cc]z[Cc] z | %212
 [Cc]z[Cc]z[K:bass][G,G]z[E,E] z | [C,C]z[C,C]z[C,C]z[C,C] z | %214
 [C,C]z[C,C]z[G,,G,]z[E,,E,] z!ped-up! |!ped! [C,,C,]2 z2 z2 [C,,G,,C,]2 | %216
 [C,,G,,C,]2 [C,,G,,C,]2 [C,,G,,C,]2 [C,,G,,C,]2 | [C,,G,,C,]2 z2 z2 [C,,G,,C,]2 | %218
 [C,,G,,C,]2 [C,,G,,C,]2 [C,,G,,C,]2 [C,,G,,C,]2 | [C,,G,,C,]2 z2 [C,,G,,C,]2 [C,,G,,C,]2 | %220
 [C,,G,,C,]2 z2 [C,,G,,C,]2 [C,,G,,C,]2 | [C,,G,,C,]2 z2 [C,,G,,C,]2 [C,,G,,C,]2 | %222
 [C,,G,,C,]2 z2 [C,,G,,C,]2 [C,,G,,C,]2 | [C,,G,,C,]2 [E,,E,]2 [G,,G,]2 [C,C]2 | %224
 [E,E]2 [G,G]2 [E,E]2 [C,C]2 | [G,,G,]2 [E,,E,]2 [C,,C,]2 [G,,,G,,]2 | %226
!8vb(! [E,,,E,,]2 [C,,,C,,]2 [C,,,C,,]2 [C,,,C,,]2 | [C,,,C,,]2!ped-up!!8vb)! z2 z4 | z8 | %229
 [C,E,G,C]2 z2 z4 | z8 | [C,,E,,G,,C,]2 z2 z4 | z8 | [C,E,G,C]2 z2 z4 | [C,E,G,C]2 z2 z4 | %235
 [C,E,G,C]2 z2 z4 | z8 | [C,,E,,G,,C,]2 z2 z4 | z8 |!8vb(! !fermata![C,,,C,,]8!8vb)! |] %240
V:3
 x8 | x8 | x8 | x8 | x8 | x8 | x8 | x8 | x8 | x8 | x8 | x8 | B,,4 C,4 | x8 | B,,4 C,4 | x8 | x8 | %17
 x8 | x8 | x8 | x8 | x8 | x8 | x8 | x8 | x8 | x8 | x8 | x8 | x8 | x8 | x8 | x8 | x8 | x4 _B,,4 | %35
 A,, x x2 x4 | x4 A,,4 | x8 | x8 | x8 | x8 | x8 | x8 | x8 | x8 | x[K:treble] x4[K:bass] x3 | x8 | %47
 x8 | x4 x2 C2 | B,4 C4 | x8 | C,4 C,4 | C,2 x2 x2 C2 | B,4 C2 C2 | x4 x2[K:treble] D2 | %55
 ^C4 D2 D2 | E2[K:bass] x2 x4 | x8 | x8 | x8 | x8 | x8 | x8 | x8 | x8 | x8 | E,4 x2 B,2 | x8 | %68
 E,6 D,2 | x8 | A,6 G,2 | x8 | x8 | G,4 G,4 | %74
 (9:6:9x [G,C]E,[G,,C,]E,,[G,,C,] E,[G,C]E (3D,!mf!F,B, | %75
 (3C,!mf!F,A, (3B,,!mf!D,G, (3B,,!mf!D,G, (3B,,D,G, | %76
 (9:6:9x [G,C]E,[G,,C,]E,,[G,,C,] E,[G,C]E (3D,!mf!F,B, | %77
 (3C,!mf!F,A, (3B,,D,G, (3B,,!mf!D,G, (3B,,D,G, | %78
 (9:6:9z [D,G,]B,,[D,,G,,]B,,,[D,,G,,] B,,[D,G,]B, (3C,!mf!E,G, | %79
 (3F,,A,,D, (3E,,!mf!G,,_B,, (3E,,G,,B,, (3E,,!mf!G,,B,, | %80
 (3E,,!mf!G,,_B,, (3E,,!mf!B,,^C, (3E,,B,,C, (3E,,!mf!B,,C, | %81
 (3E,,_B,,^C, (3E,,!mf!B,,C, (3E,,!mf!B,,C, (3E,,!mf!B,,C, | x8 | x8 | x8 | x8 | x8 | x8 | %88
 G,,4 G,,4 | D,6 D,2 | x8 | E,6 (3G,F,E, | G,,8 | G,,4 x4 | G,,4 G,,4 | G,,4 x4 | G,,4 C,4 | %97
 D,6 D,2 | ^C,4 D,4 | E,8 | E,8 | x[K:treble] x7 |[K:bass] x2[K:treble] x6 | %103
[K:bass] x2[K:treble] x6 |[K:bass]!8vb(! x8!8vb)! | x8 | x8 | x8 | x8 | x8 | x8 | x8 | x8 | x8 | %114
 x8 | x8 | x8 | x8 | x8 | x8 | x8 | x8 | x8 | x8 | %124
 z/[K:treble]!mf!!<(! C/D/E/!f! F/G/A/!<)!B/ .c2[K:bass] z2 | %125
 z/[K:treble]!mf!!<(! C/D/E/F/G/A/!<)!B/ .c2[K:bass] x2 | %126
 z/[K:treble]!mf! C/D/E/=F/G/A/B/ .c2[K:bass] x2 | %127
 z/[K:treble]!mf!!<(! C/D/_E/F/G/A/!<)!B/ .c2[K:bass] x2 | x8 | x8 | x8 | x8 | x8 | x8 | x8 | x8 | %136
 x8 | x8 | x8 | (3E,G,C (3D,F,B, (3C,E,A, (3B,,D,G, | (3A,,C,F, (3G,,B,,E, (3F,,A,,D, (3E,,A,,^C, | %141
 z/[K:treble]!mf!!<(! C/D/E/F/G/A/!<)!B/ .c2[K:bass] z2 | %142
 z/[K:treble]!<(! C/D/E/F/G/A/!<)!B/ .c2[K:bass] x2 | %143
 z/[K:treble]!<(! C/D/E/=F/G/A/!<)!B/ .c2[K:bass] x2 | %144
 z/[K:treble]!<(! C/D/_E/F/G/A/!<)!B/ .c2[K:bass] x2 | .[_B,,=E,_B,]2 z2 .[B,,B,]2 z2 | %146
 .[_A,,_A,]2 z2 .[A,,A,]2 z2 | .[G,,G,]2 z2 .[G,,G,]2 z2 | x8 | x8 | x8 | x8 | x8 | x8 | x8 | x8 | %156
 x8 || x8 | z2 [G,,,G,,]2 [G,,,G,,]2 [G,,,G,,]2 | x8 | z2 [G,,,G,,]2 [G,,,G,,]2 [G,,,G,,]2 | %161
 [C,,C,]2 x2 x4 | z2 [G,,,G,,]2 [G,,,G,,]2 [G,,,G,,]2 | [C,,C,]2 x2 x4 | %164
 z2 [G,,,G,,]2 [G,,,G,,]2 [G,,,G,,]2 | x8 | x8 | x8 | x8 | x8 | x8 | x8 | x8 | x8 | x8 | x8 | x8 | %177
 ._B,,2 z2 .B,,2 z2 | ._A,,2 z2 .A,,2 z2 | .G,,2 z2 .G,,2 z2 | .G,,2 z2 z4 | x8 | x8 | x8 | x8 | %185
 x8 | x8 | x8 | x8 | x8 | x8 | x8 | x8 | x8 | x8 | x8 | x8 | x8 | x8 | x8 | x8 | x8 | x8 | x8 | %204
 x8 | x8 | x8 | x8 | x8 | x8 | x8 |[K:treble] x8 | x4[K:bass] x4 | x8 | x8 | x8 | x8 | x8 | x8 | %219
 x8 | x8 | x8 | x8 | x8 | x8 | x8 |!8vb(! x8 | x2!8vb)! x6 | x8 | x8 | x8 | x8 | x8 | x8 | x8 | %235
 x8 | x8 | x8 | x8 |!8vb(! x8!8vb)! |] %240
V:4
 x8 | x8 | x8 | x8 | x8 | x8 | x8 | x8 | x8 | x8 | x8 | x8 | x8 | x8 | x8 | x8 | x8 | x8 | x8 | %19
 x8 | x8 | x8 | x8 | x8 | x8 | x8 | x8 | x8 | x8 | %29
 (6:4:6z!mp! [FG][FG][FG][FG][FG] (6:4:6[FG][FG][FG][DF]!mp![DF][DF] | x8 | %31
 (6:4:6[GB]!mp![GB][GB][Gc]!mp![Gc][Gc] (6:4:6[EGc][EGc][EGc][EGc][EGc][EGc] | %32
 (6:4:6[Gce][Gce][Gce][Gce][Gce][Gce] (6:4:6[Gce][Gce][Gce][Gce][Gce][Gce] | x8 | x8 | x8 | x8 | %37
 [Gdf]8 | [Gdf]4 B2 c>d | [ce]8 | [ce]4 c2 d>e | [df]4 B3 c/d/ | c4 c3 d/e/ | [Bd]2 z2 z G3- | %44
 G G3- G x x2 | x8 | x8 | x8 | x4 x2 G2 | G8 | x8 | x8 | x4 x2 G2 | G8 | G2 [DF]2 E2 A2 | A8 | %56
 A2 G2 F2 x2 | c4 c4 | x8 | x8 | x8 | x8 | x8 | x2 [Gd]2 [eg]2 [Gc]2 | x8 | x8 | G4 F4 | x8 | %68
 c6!mf! B2 | x8 | f6!mf! [Ee]2 | x8 | x8 | x8 | %74
 (9:6:9x!mf! [eg]c'!8va(![e'g']c''[e'g']!8va)! c'[eg]c (3Bfd | (3Afc (3Gfd (3Gfd (3G!mf!fd | %76
 (9:6:9x!mf! [eg]c'!8va(![e'g']c''[e'g']!8va)! c'[eg]c (3Bfd | (3Afc (3G!mf!fd (3Gfd (3G!mf!fd | %78
!8va(! (9:6:9x!mf! [bd']f'[b'd'']f''[b'd''] f'[bd']f (3ec'g!8va)! | %79
 (3d!mf!af (3^c_bg (3c!mf!bg (3cbg | (3^c_bg (3ebg (3e!mf!bg (3ebg | %81
 (3e!mf!_bg (3g^c'b (3gc'b (3gc'b | x8 | x8 | x8 | x8 | x/!8va(! x15/2 | x6!8va)! x2 | x8 | x8 | %90
 x8 | x8 | x8 | x8 | x8 | x8 | x8 | x8 | x8 | x8 |!8va(! x8 | x8 | x8 | x8 | x8 | x2!8va)! x6 | %106
 x8 | x8 | x8 | x8 | x8 | x8 | x8 | x8 | x8 | x8 | x8 | x8 | x8 | x8 | x8 | x8 | %122
 g/!mp!e/g/e/ f/!mp!d/f/d/ e/!mp!c/e/c/ d/!mp!B/d/B/ | %123
 c/!mp!A/c/A/ B/!mp!G/B/G/ A/!mp!F/A/F/ G/!mp!E/G/E/ | %124
 z/!8va(! c'/d'/e'/f'/g'/!ff!a'/b'/ .c''2!8va)! z2 | %125
 z/!8va(! c'/d'/e'/!f!f'/g'/!ff!a'/b'/ .c''2!8va)! x2 | %126
 z/!8va(!!<(! c'/d'/e'/!f!=f'/g'/!ff!a'/!<)!b'/ .c''2!8va)! x2 | %127
 z/!8va(! c'/d'/_e'/!f!f'/g'/!ff!a'/b'/ .c''2!8va)! x2 | x8 | x8 | x8 | x8 | x8 | x8 | x8 | x8 | %136
 x8 | x8 | x8 | (3cgc (3Bfd (3Aec (3GdB | (3FcA (3EBG (3DAF (3^CAG | %141
 z/!8va(! c'/d'/e'/!f!f'/g'/!ff!a'/b'/ .c''2!8va)! x2 | %142
 z/!mf!!8va(! c'/d'/e'/!f!f'/g'/!ff!a'/b'/ .c''2!8va)! x2 | %143
 z/!mf!!8va(! c'/d'/e'/!f!=f'/g'/!ff!a'/b'/ .c''2!8va)! x2 | %144
 x/!mf!!8va(! c'/d'/_e'/!f!f'/g'/!ff!a'/b'/ .c''2 x2!8va)! | z [cg][cg][cg] z [cg][cg][cg] | %146
 z!mp! [cg][cg][cg] z [cf][cf][cf] | z!mf! [Bf][Bf][Bf] z [ce][ce][ce] | x8 | x8 | x8 | x8 | x8 | %153
 x8 | x8 | x8 | x8 || x8 | x8 | x8 | x8 | x8 | x8 | x8 | x8 | x8 | x8 | x8 | x8 | x8 | x8 | x8 | %172
 x8 | x8 | x8 | x8 | x8 | .[Gc]2 .[Gc]2 .[Gc]2 .[Gc]2 | .[Fc]2 .[Fc]2 .[Fc]2 .[Fc]2 | %179
 .[FB]2 .[FB]2 .[Ec]2 .[Ec]2 | .[DB]2 .[DB]2 x4 | x8 | x8 | x8 | x8 | x8 | x8 | x8 | x8 | x8 | x8 | %191
 x8 | x8 | x8 | x8 | x8 | x8 | x8 | x8 | x8 | x8 | x8 | x8 | x8 | x8 | x8 | x8 | x8 | x8 | x8 | %210
 x8 | x!8va(! x7 | x8!8va)! | x8 | x8 | x8 | x8 | x8 | x8 | x8 | x8 | x8 | x8 | x8 | x8 | x8 | x8 | %227
 x8 | x8 | x8 | x8 | x8 | x8 | x8 | x8 | x8 | x8 |!8va(! x4!8va)! x4 | x8 |[K:bass] x8 |] %240
V:5
 x8 | x8 | x8 | x8 | x8 | x8 | x8 | x8 | x8 | x8 | x8 | x8 | x8 | x8 | x8 | x8 | x8 | x8 | x8 | %19
 x8 | x8 | x8 | x8 | x8 | x8 | x8 | x8 | x8 | x8 | x8 | x8 | x8 | x8 | x8 | x8 | x8 | x8 | x8 | %38
 x8 | x8 | x8 | x8 | x8 | x8 | x8 | x[K:treble] x4[K:bass] x3 | x8 | x8 | x8 | x8 | x8 | x8 | x8 | %53
 x8 | x6[K:treble] x2 | x8 | x2[K:bass] x6 | x8 | x8 | x8 | x8 | x8 | x8 | x8 | x8 | x8 | x4 D,4 | %67
 x8 | G,4 x2 B,2 | x8 | C4 x2 x2 | x8 | x8 | x8 | x8 | x8 | x8 | x8 | x8 | x8 | x8 | x8 | x8 | x8 | %84
 x8 | x8 | x8 | x8 | x8 | G,,8- | G,,4 G,,4 | G,,8 | x8 | x8 | x8 | x8 | x8 | x8 | x8 | x8 | x8 | %101
 x[K:treble] x7 |[K:bass] x2[K:treble] x6 |[K:bass] x2[K:treble] x6 |[K:bass]!8vb(! x8!8vb)! | x8 | %106
 x8 | x8 | x8 | x8 | x8 | x8 | x8 | x8 | x8 | x8 | x8 | x8 | x8 | x8 | x8 | x8 | x8 | x8 | %124
 x/[K:treble] x11/2[K:bass] x2 | x/[K:treble] x11/2[K:bass] x2 | x/[K:treble] x11/2[K:bass] x2 | %127
 x/[K:treble] x11/2[K:bass] x2 | x8 | x8 | x8 | x8 | x8 | x8 | x8 | x8 | x8 | x8 | x8 | x8 | x8 | %141
 x/[K:treble] x11/2[K:bass] x2 | x/[K:treble] x11/2[K:bass] x2 | x/[K:treble] x11/2[K:bass] x2 | %144
 x/[K:treble] x11/2[K:bass] x2 | x8 | x8 | x8 | x8 | x8 | x8 | x8 | x8 | x8 | x8 | x8 | x8 || x8 | %158
 x8 | x8 | x8 | x8 | x8 | x8 | x8 | x8 | x8 | x8 | x8 | x8 | x8 | x8 | x8 | x8 | x8 | x8 | x8 | %177
 x8 | x8 | x8 | x8 | x8 | x8 | x8 | x8 | x8 | x8 | x8 | x8 | x8 | x8 | x8 | x8 | x8 | x8 | x8 | %196
 x8 | x8 | x8 | x8 | x8 | x8 | x8 | x8 | x8 | x8 | x8 | x8 | x8 | x8 | x8 |[K:treble] x8 | %212
 x4[K:bass] x4 | x8 | x8 | x8 | x8 | x8 | x8 | x8 | x8 | x8 | x8 | x8 | x8 | x8 |!8vb(! x8 | %227
 x2!8vb)! x6 | x8 | x8 | x8 | x8 | x8 | x8 | x8 | x8 | x8 | x8 | x8 |!8vb(! x8!8vb)! |] %240
V:6
 x8 | x8 | x8 | x8 | x8 | x8 | x8 | x8 | x8 | x8 | x8 | x8 | x8 | x8 | x8 | x8 | x8 | x8 | x8 | %19
 x8 | x8 | x8 | x8 | x8 | x8 | x8 | x8 | x8 | x8 | x8 | x8 | x8 | x8 | x8 | x8 | x8 | x8 | x8 | %38
 x8 | x8 | x8 | x8 | x8 | x8 | x8 | x8 | x8 | x8 | x8 | x8 | x8 | x8 | x8 | x8 | x8 | x8 | x8 | %57
 x8 | x8 | x8 | x8 | x8 | x8 | x8 | x8 | x8 | x8 | x8 | x4 F4 | x8 | x4 _B4 | x8 | x8 | x8 | %74
 x2!8va(! x2!8va)! x4 | x8 | x2!8va(! x2!8va)! x4 | x8 |!8va(! x8!8va)! | x8 | x8 | x8 | x8 | x8 | %84
 x8 | x8 | x/!8va(! x15/2 | x6!8va)! x2 | x8 | x8 | x8 | x8 | x8 | x8 | x8 | x8 | x8 | x8 | x8 | %99
 x8 |!8va(! x8 | x8 | x8 | x8 | x8 | x2!8va)! x6 | x8 | x8 | x8 | x8 | x8 | x8 | x8 | x8 | x8 | %115
 x8 | x8 | x8 | x8 | x8 | x8 | x8 | x8 | x8 | x/!8va(! x11/2!8va)! x2 | x/!8va(! x11/2!8va)! x2 | %126
 x/!8va(! x11/2!8va)! x2 | x/!8va(! x11/2!8va)! x2 | x8 | x8 | x8 | x8 | x8 | x8 | x8 | x8 | x8 | %137
 x8 | x8 | x8 | x8 | x/!8va(! x11/2!8va)! x2 | x/!8va(! x11/2!8va)! x2 | x/!8va(! x11/2!8va)! x2 | %144
 x/!8va(! x15/2!8va)! | x8 | x8 | x8 | x8 | x8 | x8 | x8 | x8 | x8 | x8 | x8 | x8 || x8 | x8 | x8 | %160
 x8 | x8 | x8 | x8 | x8 | x8 | x8 | x8 | x8 | x8 | x8 | x8 | x8 | x8 | x8 | x8 | x8 | x8 | x8 | %179
 x8 | x8 | x8 | x8 | x8 | x8 | x8 | x8 | x8 | x8 | x8 | x8 | x8 | x8 | x8 | x8 | x8 | x8 | x8 | %198
 x8 | x8 | x8 | x8 | x8 | x8 | x8 | x8 | x8 | x8 | x8 | x8 | x8 | x!8va(! x7 | x8!8va)! | x8 | x8 | %215
 x8 | x8 | x8 | x8 | x8 | x8 | x8 | x8 | x8 | x8 | x8 | x8 | x8 | x8 | x8 | x8 | x8 | x8 | x8 | %234
 x8 | x8 | x8 |!8va(! x4!8va)! x4 | x8 |[K:bass] x8 |] %240

